**harm	**harte	**timestamp	**phrase	**leadinstrument	**kern
*M4/4	*M4/4	*	*	*	*
*a:	*a:	*	*	*	*a:
1r;	N	0	.	r	1r;
=1	=1	=1	=1	=1	=1
*>A_verse	*>A_verse	*>A_verse	*>A_verse	*>A_verse	*>A_verse
1i	A:5	0.279	newline	guitar	1A 1cc 1ee
=2	=2	=2	=2	=2	=2
1i	A:5	1.641	.	guitar	1A 1cc 1ee
=3	=3	=3	=3	=3	=3
4V	E:maj	3.003	.	guitar	4E 4g# 4b
2-VI7	F:maj7	3.344	.	guitar	2F- 2a- 2cc- 2ee
4-III	C:maj	4.025	.	guitar	4C- 4e- 4g-
=4	=4	=4	=4	=4	=4
4-III	C:maj	4.365	.	guitar	4C- 4e- 4g-
4-II	B-:maj	4.706	.	guitar	4B- 4dd 4ff
2i7c	A:min7/5	5.046	.	guitar	2a 2cc 2E 2g#
=5	=5	=5	=5	=5	=5
1i	A:5	5.727	newline	guitar	1A 1cc 1ee
=6	=6	=6	=6	=6	=6
1i	A:5	7.019	.	guitar	1A 1cc 1ee
=7	=7	=7	=7	=7	=7
4V	E:maj	8.311	.	guitar	4E 4g# 4b
2-VI	F:maj	8.634	.	guitar	2F- 2a- 2cc-
4IV	D:maj	9.28	.	guitar	4D 4f# 4a
=8	=8	=8	=8	=8	=8
4IV	D:maj	9.603	.	guitar	4D 4f# 4a
4II	B:maj	9.926	.	guitar	4B 4dd# 4ff#
2V	E:maj	10.249	.	guitar	2E 2g# 2b
=9	=9	=9	=9	=9	=9
1i	A:5	10.895	newline	guitar	1A 1cc 1ee
=10	=10	=10	=10	=10	=10
1i	A:5	12.206	.	guitar	1A 1cc 1ee
=11	=11	=11	=11	=11	=11
4V	E:maj	13.517	.	guitar	4E 4g# 4b
2-VI7	F:maj7	13.845	.	guitar	2F- 2a- 2cc- 2ee
4-III	C:maj	14.501	.	guitar	4C- 4e- 4g-
=12	=12	=12	=12	=12	=12
4-III	C:maj	14.829	.	guitar	4C- 4e- 4g-
4-II	B-:maj	15.156	.	guitar	4B- 4dd 4ff
2i7c	A:min7/5	15.484	.	guitar	2a 2cc 2E 2g#
=13	=13	=13	=13	=13	=13
1i	A:5	16.14	newline	guitar	1A 1cc 1ee
=14	=14	=14	=14	=14	=14
1i	A:5	17.474	.	guitar	1A 1cc 1ee
=15	=15	=15	=15	=15	=15
4V	E:maj	18.809	.	guitar	4E 4g# 4b
2-VI	F:maj	19.143	.	guitar	2F- 2a- 2cc-
4IV	D:maj	19.81	.	guitar	4D 4f# 4a
=16	=16	=16	=16	=16	=16
4IV	D:maj	20.143	.	guitar	4D 4f# 4a
4II	B:maj	20.477	.	guitar	4B 4dd# 4ff#
2V	E:maj	20.811	.	guitar	2E 2g# 2b
=17	=17	=17	=17	=17	=17
*>A_verse	*>A_verse	*>A_verse	*>A_verse	*>A_verse	*>A_verse
1i	A:5	21.478	newline	guitar	1A 1cc 1ee
=18	=18	=18	=18	=18	=18
1i	A:5	22.786	.	guitar	1A 1cc 1ee
=19	=19	=19	=19	=19	=19
4V	E:maj	24.094	.	guitar	4E 4g# 4b
2-VI7	F:maj7	24.421	.	guitar	2F- 2a- 2cc- 2ee
4-III	C:maj	25.075	.	guitar	4C- 4e- 4g-
=20	=20	=20	=20	=20	=20
4-III	C:maj	25.402	.	guitar	4C- 4e- 4g-
4-II	B-:maj	25.729	.	guitar	4B- 4dd 4ff
2i7c	A:min7/5	26.056	.	guitar	2a 2cc 2E 2g#
=21	=21	=21	=21	=21	=21
1i	A:5	26.71	newline	guitar	1A 1cc 1ee
=22	=22	=22	=22	=22	=22
1i	A:5	28.03	.	guitar	1A 1cc 1ee
=23	=23	=23	=23	=23	=23
4V	E:maj	29.35	.	guitar	4E 4g# 4b
2-VI	F:maj	29.681	.	guitar	2F- 2a- 2cc-
4IV	D:maj	30.341	.	guitar	4D 4f# 4a
=24	=24	=24	=24	=24	=24
4IV	D:maj	30.671	.	guitar	4D 4f# 4a
4II	B:maj	31.001	.	guitar	4B 4dd# 4ff#
2V	E:maj	31.331	.	guitar	2E 2g# 2b
=25	=25	=25	=25	=25	=25
1i	A:5	31.991	newline	guitar	1A 1cc 1ee
=26	=26	=26	=26	=26	=26
1i	A:5	33.33	.	guitar	1A 1cc 1ee
=27	=27	=27	=27	=27	=27
4V	E:maj	34.668	.	guitar	4E 4g# 4b
2-VI7	F:maj7	35.003	.	guitar	2F- 2a- 2cc- 2ee
4-III	C:maj	35.672	.	guitar	4C- 4e- 4g-
=28	=28	=28	=28	=28	=28
4-III	C:maj	36.006	.	guitar	4C- 4e- 4g-
4-II	B-:maj	36.341	.	guitar	4B- 4dd 4ff
2i7c	A:min7/5	36.676	.	guitar	2a 2cc 2E 2g#
=29	=29	=29	=29	=29	=29
1i	A:5	37.345	newline	guitar	1A 1cc 1ee
=30	=30	=30	=30	=30	=30
1i	A:5	38.667	.	guitar	1A 1cc 1ee
=31	=31	=31	=31	=31	=31
4V	E:maj	39.99	.	guitar	4E 4g# 4b
2-VI	F:maj	40.321	.	guitar	2F- 2a- 2cc-
4IV	D:maj	40.982	.	guitar	4D 4f# 4a
=32	=32	=32	=32	=32	=32
4IV	D:maj	41.313	.	guitar	4D 4f# 4a
4II	B:maj	41.643	.	guitar	4B 4dd# 4ff#
2V	E:maj	41.974	.	guitar	2E 2g# 2b
=33	=33	=33	=33	=33	=33
*>B_prechorus	*>B_prechorus	*>B_prechorus	*>B_prechorus	*>B_prechorus	*>B_prechorus
2i	A:min	42.635	newline	guitar	2A 2cc 2ee
4-III	C:maj	43.274	.	guitar	4C- 4e- 4g-
4IV	D:maj	43.593	.	guitar	4D 4f# 4a
=34	=34	=34	=34	=34	=34
1IV	D:maj	43.913	.	guitar	1D 1f# 1a
=35	=35	=35	=35	=35	=35
2iv	D:min	45.19	.	guitar	2D 2f 2a
4-VI	F:maj	45.829	.	guitar	4F- 4a- 4cc-
4-VII	G:maj	46.148	.	guitar	4G 4b 4dd
=36	=36	=36	=36	=36	=36
1-VII	G:maj	46.468	.	guitar	1G 1b 1dd
=37	=37	=37	=37	=37	=37
1v7	E:min7	47.745	newline	drums	1E 1g 1b 1dd
=38	=38	=38	=38	=38	=38
1r	N	48.988	.	drums	1r
=39	=39	=39	=39	=39	=39
1r	N	50.23	.	drums	1r
=40	=40	=40	=40	=40	=40
1r	N	51.472	.	drums	1r
=41	=41	=41	=41	=41	=41
*>C_chorus	*>C_chorus	*>C_chorus	*>C_chorus	*>C_chorus	*>C_chorus
2i7	A:min7	52.715	newline	voice	2A 2cc 2ee 2gg#
2v7	E:min7	53.403	.	voice	2E 2g 2b 2dd
=42	=42	=42	=42	=42	=42
2-VI	F:maj	54.091	.	voice	2F- 2a- 2cc-
2-III	C:maj	54.778	.	voice	2C- 2e- 2g-
=43	=43	=43	=43	=43	=43
2iv	D:min	55.466	.	voice	2D 2f 2a
2i7	A:min7	56.154	.	voice	2A 2cc 2ee 2gg#
=44	=44	=44	=44	=44	=44
2II	B:maj	56.842	.	voice	2B 2dd# 2ff#
2V	E:maj	57.53	.	voice	2E 2g# 2b
=45	=45	=45	=45	=45	=45
2i7	A:min7	58.217	newline	voice	2A 2cc 2ee 2gg#
2v7	E:min7	58.904	.	voice	2E 2g 2b 2dd
=46	=46	=46	=46	=46	=46
2-VI	F:maj	59.591	.	voice	2F- 2a- 2cc-
2-III	C:maj	60.277	.	voice	2C- 2e- 2g-
=47	=47	=47	=47	=47	=47
2iv	D:min	60.964	.	voice	2D 2f 2a
2i7	A:min7	61.651	.	voice	2A 2cc 2ee 2gg#
=48	=48	=48	=48	=48	=48
2II	B:maj	62.337	.	voice	2B 2dd# 2ff#
2V	E:maj	63.024	.	voice	2E 2g# 2b
=49	=49	=49	=49	=49	=49
1I	A:maj	63.71	newline	voice	1A 1cc# 1ee
=50	=50	=50	=50	=50	=50
1-IId	B-:maj/7	65.088	.	voice	1b- 1dd 1ff
=51	=51	=51	=51	=51	=51
1-IIIg	C:maj/6	66.465	.	voice	1C- 1e- 1g-
=52	=52	=52	=52	=52	=52
1ivc	D:min/5	67.843	.	voice	1d 1f 1A
=53	=53	=53	=53	=53	=53
1vf	E:min/4	69.22	newline	voice	1E 1g 1b
=54	=54	=54	=54	=54	=54
2-VIb	F:maj/3	70.514	.	voice	2f- 2A- 2cc-
2-VIIe	G:maj/2	71.161	.	voice	2G 2b 2dd
=55	=55	=55	=55	=55	=55
1I	A:maj	71.808	.	voice	1A 1cc# 1ee
=56	=56	=56	=56	=56	=56
1I	A:maj	73.103	.	voice	1A 1cc# 1ee
=57	=57	=57	=57	=57	=57
*>A_verse	*>A_verse	*>A_verse	*>A_verse	*>A_verse	*>A_verse
1i	A:5	74.397	newline	guitar	1A 1cc 1ee
=58	=58	=58	=58	=58	=58
1i	A:5	75.694	.	guitar	1A 1cc 1ee
=59	=59	=59	=59	=59	=59
4V	E:maj	76.991	.	guitar	4E 4g# 4b
2-VI7	F:maj7	77.315	.	guitar	2F- 2a- 2cc- 2ee
4-III	C:maj	77.964	.	guitar	4C- 4e- 4g-
=60	=60	=60	=60	=60	=60
4-III	C:maj	78.288	.	guitar	4C- 4e- 4g-
4-II	B-:maj	78.613	.	guitar	4B- 4dd 4ff
2i7c	A:min7/5	78.937	.	guitar	2a 2cc 2E 2g#
=61	=61	=61	=61	=61	=61
1i	A:5	79.586	newline	guitar	1A 1cc 1ee
=62	=62	=62	=62	=62	=62
1i	A:5	80.884	.	guitar	1A 1cc 1ee
=63	=63	=63	=63	=63	=63
4V	E:maj	82.182	.	guitar	4E 4g# 4b
2-VI	F:maj	82.507	.	guitar	2F- 2a- 2cc-
4IV	D:maj	83.156	.	guitar	4D 4f# 4a
=64	=64	=64	=64	=64	=64
4IV	D:maj	83.481	.	guitar	4D 4f# 4a
4II	B:maj	83.805	.	guitar	4B 4dd# 4ff#
2V	E:maj	84.13	.	guitar	2E 2g# 2b
=65	=65	=65	=65	=65	=65
1i	A:5	84.779	newline	guitar	1A 1cc 1ee
=66	=66	=66	=66	=66	=66
1i	A:5	86.08	.	guitar	1A 1cc 1ee
=67	=67	=67	=67	=67	=67
4V	E:maj	87.38	.	guitar	4E 4g# 4b
2-VI7	F:maj7	87.706	.	guitar	2F- 2a- 2cc- 2ee
4-III	C:maj	88.356	.	guitar	4C- 4e- 4g-
=68	=68	=68	=68	=68	=68
4-III	C:maj	88.681	.	guitar	4C- 4e- 4g-
4-II	B-:maj	89.006	.	guitar	4B- 4dd 4ff
2i7c	A:min7/5	89.331	.	guitar	2a 2cc 2E 2g#
=69	=69	=69	=69	=69	=69
1i	A:5	89.982	newline	guitar	1A 1cc 1ee
=70	=70	=70	=70	=70	=70
1i	A:5	91.267	.	guitar	1A 1cc 1ee
=71	=71	=71	=71	=71	=71
4V	E:maj	92.552	.	guitar	4E 4g# 4b
2-VI	F:maj	92.874	.	guitar	2F- 2a- 2cc-
4IV	D:maj	93.516	.	guitar	4D 4f# 4a
=72	=72	=72	=72	=72	=72
4IV	D:maj	93.838	.	guitar	4D 4f# 4a
4II	B:maj	94.159	.	guitar	4B 4dd# 4ff#
2V	E:maj	94.48	.	guitar	2E 2g# 2b
=73	=73	=73	=73	=73	=73
*>B_prechorus	*>B_prechorus	*>B_prechorus	*>B_prechorus	*>B_prechorus	*>B_prechorus
2i	A:min	95.123	newline	guitar	2A 2cc 2ee
4-III	C:maj	95.77	.	guitar	4C- 4e- 4g-
4IV	D:maj	96.094	.	guitar	4D 4f# 4a
=74	=74	=74	=74	=74	=74
1IV	D:maj	96.417	.	guitar	1D 1f# 1a
=75	=75	=75	=75	=75	=75
2iv	D:min	97.711	.	guitar	2D 2f 2a
4-VI	F:maj	98.358	.	guitar	4F- 4a- 4cc-
4-VII	G:maj	98.682	.	guitar	4G 4b 4dd
=76	=76	=76	=76	=76	=76
1-VII	G:maj	99.005	.	guitar	1G 1b 1dd
=77	=77	=77	=77	=77	=77
1v7	E:min7	100.3	newline	drums	1E 1g 1b 1dd
=78	=78	=78	=78	=78	=78
1r	N	101.513	.	drums	1r
=79	=79	=79	=79	=79	=79
1r	N	102.725	.	drums	1r
=80	=80	=80	=80	=80	=80
1r	N	103.938	.	drums	1r
=81	=81	=81	=81	=81	=81
*>D_solo	*>D_solo	*>D_solo	*>D_solo	*>D_solo	*>D_solo
1i	A:min	105.151	newline	flute	1A 1cc 1ee
=82	=82	=82	=82	=82	=82
1r	N	106.449	.	flute	1r
=83	=83	=83	=83	=83	=83
1r	N	107.747	.	flute	1r
=84	=84	=84	=84	=84	=84
1r	N	109.045	.	flute	1r
=85	=85	=85	=85	=85	=85
1r	N	110.343	newline	flute	1r
=86	=86	=86	=86	=86	=86
1r	N	111.035	.	flute	1r
=87	=87	=87	=87	=87	=87
1r	N	111.726	.	flute	1r
=88	=88	=88	=88	=88	=88
1r	N	112.418	.	flute	1r
=89	=89	=89	=89	=89	=89
1r	N	113.109	newline	flute	1r
=90	=90	=90	=90	=90	=90
1r	N	114.442	.	flute	1r
=91	=91	=91	=91	=91	=91
1r	N	115.775	.	flute	1r
=92	=92	=92	=92	=92	=92
1r	N	117.109	.	flute	1r
=93	=93	=93	=93	=93	=93
1r	N	118.442	newline	drums	1r
=94	=94	=94	=94	=94	=94
1r	N	119.733	.	drums	1r
=95	=95	=95	=95	=95	=95
*>A_verse	*>A_verse	*>A_verse	*>A_verse	*>A_verse	*>A_verse
1i	A:5	121.023	newline	guitar	1A 1cc 1ee
=96	=96	=96	=96	=96	=96
1i	A:5	122.296	.	guitar	1A 1cc 1ee
=97	=97	=97	=97	=97	=97
4V	E:maj	123.568	.	guitar	4E 4g# 4b
2-VI7	F:maj7	123.887	.	guitar	2F- 2a- 2cc- 2ee
4-III	C:maj	124.523	.	guitar	4C- 4e- 4g-
=98	=98	=98	=98	=98	=98
4-III	C:maj	124.841	.	guitar	4C- 4e- 4g-
4-II	B-:maj	125.159	.	guitar	4B- 4dd 4ff
2i7c	A:min7/5	125.477	.	guitar	2a 2cc 2E 2g#
=99	=99	=99	=99	=99	=99
1i	A:5	126.114	newline	guitar	1A 1cc 1ee
=100	=100	=100	=100	=100	=100
1i	A:5	127.396	.	guitar	1A 1cc 1ee
=101	=101	=101	=101	=101	=101
4V	E:maj	128.678	.	guitar	4E 4g# 4b
2-VI	F:maj	128.998	.	guitar	2F- 2a- 2cc-
4IV	D:maj	129.639	.	guitar	4D 4f# 4a
=102	=102	=102	=102	=102	=102
4IV	D:maj	129.96	.	guitar	4D 4f# 4a
4II	B:maj	130.28	.	guitar	4B 4dd# 4ff#
2V	E:maj	130.601	.	guitar	2E 2g# 2b
=103	=103	=103	=103	=103	=103
1i	A:5	131.242	newline	guitar	1A 1cc 1ee
=104	=104	=104	=104	=104	=104
1i	A:5	132.553	.	guitar	1A 1cc 1ee
=105	=105	=105	=105	=105	=105
4V	E:maj	133.865	.	guitar	4E 4g# 4b
2-VI7	F:maj7	134.193	.	guitar	2F- 2a- 2cc- 2ee
4-III	C:maj	134.849	.	guitar	4C- 4e- 4g-
=106	=106	=106	=106	=106	=106
4-III	C:maj	135.176	.	guitar	4C- 4e- 4g-
4-II	B-:maj	135.504	.	guitar	4B- 4dd 4ff
2i7c	A:min7/5	135.832	.	guitar	2a 2cc 2E 2g#
=107	=107	=107	=107	=107	=107
1i	A:5	136.488	newline	guitar	1A 1cc 1ee
=108	=108	=108	=108	=108	=108
1i	A:5	137.777	.	guitar	1A 1cc 1ee
=109	=109	=109	=109	=109	=109
4V	E:maj	139.066	.	guitar	4E 4g# 4b
2-VI	F:maj	139.388	.	guitar	2F- 2a- 2cc-
4IV	D:maj	140.033	.	guitar	4D 4f# 4a
=110	=110	=110	=110	=110	=110
4IV	D:maj	140.355	.	guitar	4D 4f# 4a
4II	B:maj	140.678	.	guitar	4B 4dd# 4ff#
2V	E:maj	141	.	guitar	2E 2g# 2b
=111	=111	=111	=111	=111	=111
*>B_prechorus	*>B_prechorus	*>B_prechorus	*>B_prechorus	*>B_prechorus	*>B_prechorus
2i	A:min	141.644	newline	guitar	2A 2cc 2ee
4-III	C:maj	142.292	.	guitar	4C- 4e- 4g-
4IV	D:maj	142.616	.	guitar	4D 4f# 4a
=112	=112	=112	=112	=112	=112
1IV	D:maj	142.94	.	guitar	1D 1f# 1a
=113	=113	=113	=113	=113	=113
2iv	D:min	144.236	.	guitar	2D 2f 2a
4-VI	F:maj	144.883	.	guitar	4F- 4a- 4cc-
4-VII	G:maj	145.207	.	guitar	4G 4b 4dd
=114	=114	=114	=114	=114	=114
1-VII	G:maj	145.531	.	guitar	1G 1b 1dd
=115	=115	=115	=115	=115	=115
1v7	E:min7	146.827	newline	drums	1E 1g 1b 1dd
=116	=116	=116	=116	=116	=116
1r	N	148.015	.	drums	1r
=117	=117	=117	=117	=117	=117
1r	N	149.204	.	drums	1r
=118	=118	=118	=118	=118	=118
1r	N	150.392	.	drums	1r
=119	=119	=119	=119	=119	=119
*>C_chorus	*>C_chorus	*>C_chorus	*>C_chorus	*>C_chorus	*>C_chorus
2i7	A:min7	151.58	newline	voice	2A 2cc 2ee 2gg#
2v7	E:min7	152.243	.	voice	2E 2g 2b 2dd
=120	=120	=120	=120	=120	=120
2-VI	F:maj	152.906	.	voice	2F- 2a- 2cc-
2-III	C:maj	153.569	.	voice	2C- 2e- 2g-
=121	=121	=121	=121	=121	=121
2iv	D:min	154.231	.	voice	2D 2f 2a
2i7	A:min7	154.894	.	voice	2A 2cc 2ee 2gg#
=122	=122	=122	=122	=122	=122
2II	B:maj	155.557	.	voice	2B 2dd# 2ff#
2V	E:maj	156.219	.	voice	2E 2g# 2b
=123	=123	=123	=123	=123	=123
2i7	A:min7	156.882	newline	voice	2A 2cc 2ee 2gg#
2v7	E:min7	157.547	.	voice	2E 2g 2b 2dd
=124	=124	=124	=124	=124	=124
2-VI	F:maj	158.213	.	voice	2F- 2a- 2cc-
2-III	C:maj	158.878	.	voice	2C- 2e- 2g-
=125	=125	=125	=125	=125	=125
2iv	D:min	159.544	.	voice	2D 2f 2a
2i7	A:min7	160.209	.	voice	2A 2cc 2ee 2gg#
=126	=126	=126	=126	=126	=126
2II	B:maj	160.875	.	voice	2B 2dd# 2ff#
2V	E:maj	161.54	.	voice	2E 2g# 2b
=127	=127	=127	=127	=127	=127
1I	A:maj	162.206	newline	voice	1A 1cc# 1ee
=128	=128	=128	=128	=128	=128
1-IId	B-:maj/7	163.502	.	voice	1b- 1dd 1ff
=129	=129	=129	=129	=129	=129
1-IIIg	C:maj/6	164.799	.	voice	1C- 1e- 1g-
=130	=130	=130	=130	=130	=130
1ivc	D:min/5	166.096	.	voice	1d 1f 1A
=131	=131	=131	=131	=131	=131
1vf	E:min/4	167.393	newline	voice	1E 1g 1b
=132	=132	=132	=132	=132	=132
2-VIb	F:maj/3	168.685	.	voice	2f- 2A- 2cc-
2-VIIe	G:maj/2	169.331	.	voice	2G 2b 2dd
=133	=133	=133	=133	=133	=133
1I	A:maj	169.977	.	voice	1A 1cc# 1ee
=134	=134	=134	=134	=134	=134
1I	A:maj	171.268	.	voice	1A 1cc# 1ee
=135	=135	=135	=135	=135	=135
*>A_verse	*>A_verse	*>A_verse	*>A_verse	*>A_verse	*>A_verse
1i	A:5	172.56	newline	guitar	1A 1cc 1ee
=136	=136	=136	=136	=136	=136
1i	A:5	173.83	.	guitar	1A 1cc 1ee
=137	=137	=137	=137	=137	=137
4V	E:maj	175.099	.	guitar	4E 4g# 4b
2-VI7	F:maj7	175.417	.	guitar	2F- 2a- 2cc- 2ee
4-III	C:maj	176.052	.	guitar	4C- 4e- 4g-
=138	=138	=138	=138	=138	=138
4-III	C:maj	176.369	.	guitar	4C- 4e- 4g-
4-II	B-:maj	176.687	.	guitar	4B- 4dd 4ff
2i7c	A:min7/5	177.004	.	guitar	2a 2cc 2E 2g#
=139	=139	=139	=139	=139	=139
1i	A:5	177.639	newline	guitar	1A 1cc 1ee
=140	=140	=140	=140	=140	=140
1i	A:5	178.935	.	guitar	1A 1cc 1ee
=141	=141	=141	=141	=141	=141
4V	E:maj	180.232	.	guitar	4E 4g# 4b
2-VI	F:maj	180.556	.	guitar	2F- 2a- 2cc-
4IV	D:maj	181.205	.	guitar	4D 4f# 4a
=142	=142	=142	=142	=142	=142
4IV	D:maj	181.529	.	guitar	4D 4f# 4a
4II	B:maj	181.853	.	guitar	4B 4dd# 4ff#
2V	E:maj	182.177	.	guitar	2E 2g# 2b
=143	=143	=143	=143	=143	=143
1i	A:5	182.825	newline	guitar	1A 1cc 1ee
=144	=144	=144	=144	=144	=144
1i	A:5	184.118	.	guitar	1A 1cc 1ee
=145	=145	=145	=145	=145	=145
4V	E:maj	185.411	.	guitar	4E 4g# 4b
2-VI7	F:maj7	185.734	.	guitar	2F- 2a- 2cc- 2ee
4-III	C:maj	186.381	.	guitar	4C- 4e- 4g-
=146	=146	=146	=146	=146	=146
4-III	C:maj	186.704	.	guitar	4C- 4e- 4g-
4-II	B-:maj	187.027	.	guitar	4B- 4dd 4ff
2i7c	A:min7/5	187.351	.	guitar	2a 2cc 2E 2g#
=147	=147	=147	=147	=147	=147
1i	A:5	187.997	newline	guitar	1A 1cc 1ee
=148	=148	=148	=148	=148	=148
1i	A:5	189.307	.	guitar	1A 1cc 1ee
=149	=149	=149	=149	=149	=149
4V	E:maj	190.616	.	guitar	4E 4g# 4b
2-VI	F:maj	190.944	.	guitar	2F- 2a- 2cc-
4IV	D:maj	191.599	.	guitar	4D 4f# 4a
=150	=150	=150	=150	=150	=150
4IV	D:maj	191.926	.	guitar	4D 4f# 4a
4II	B:maj	192.253	.	guitar	4B 4dd# 4ff#
2V	E:maj	192.581	.	guitar	2E 2g# 2b
=151	=151	=151	=151	=151	=151
*>B_prechorus	*>B_prechorus	*>B_prechorus	*>B_prechorus	*>B_prechorus	*>B_prechorus
2i	A:min	193.236	newline	guitar	2A 2cc 2ee
4-III	C:maj	193.872	.	guitar	4C- 4e- 4g-
4IV	D:maj	194.19	.	guitar	4D 4f# 4a
=152	=152	=152	=152	=152	=152
1IV	D:maj	194.508	.	guitar	1D 1f# 1a
=153	=153	=153	=153	=153	=153
2iv	D:min	195.781	.	guitar	2D 2f 2a
4-VI	F:maj	196.417	.	guitar	4F- 4a- 4cc-
4-VII	G:maj	196.735	.	guitar	4G 4b 4dd
=154	=154	=154	=154	=154	=154
1-VII	G:maj	197.053	.	guitar	1G 1b 1dd
=155	=155	=155	=155	=155	=155
1v7	E:min7	198.326	newline	drums	1E 1g 1b 1dd
=156	=156	=156	=156	=156	=156
1r	N	199.604	.	drums	1r
=157	=157	=157	=157	=157	=157
1r	N	200.882	.	drums	1r
=158	=158	=158	=158	=158	=158
1r	N	202.161	.	drums	1r
=159	=159	=159	=159	=159	=159
1i	A:min	203.439	newline	guitar	1A 1cc 1ee
1r;	N	205.311	.	r	1r;
1r;	N	206.733	.	r	1r;
*-	*-	*-	*-	*-	*-
!!!OTL: Hocus Pocus
!!!COC: Focus
!!!BillboardChartDate: 1973/03/31, 1973/04/21
!!!BillboardPeak: 9, 9
!!!BillboardWeeksOnChart: 19, 19
!!!SampleTargetRank: 63, 38
!!!SampleActualRank: 63, 39
!!!SampleID#: 381, 999
!!!RDF**harmony: **recip + pitch class of root + harmonic quality
!!!RDF**harte: Chris Harte's syntax, used by MIREX
!!!RDF**phrase: newline = linebreak in original McGill transcription
!!!RDF**timestamp: McGill audio timestamp in seconds
!!!RDF**leadinstrument: original McGill primary instrumentation annotation
!!!RDT: 2017/01/12/
!!!ENC: Nathaniel Condit-Schultz
!!!EST: Awating manual error checking and editing.
